X:1
T:James Gibb editions
T:Das Blut Jesu Christi - Schütz
T:#
%%score [ 1 2 3 ] 4
L:1/8
Q:1/4=180
M:8/4
K:F
V:1 treble nm="Soprano I" snm="S I"
V:2 treble nm="Soprano II" snm="SII"
V:3 bass nm="Bass" snm="B"
V:4 bass nm="Continuo"
V:1
"^Das Blut Jesu Christi, SWV 298""^Heinrich Schütz\n(1585-1672)""^1 John 1:7b" z16 | z16 | z16 | %3
w: |||
 z16 | z16 | z16 | z16 | z16 | z16 | z8 d8 | _e8 d4 B4 | c8 d8 | z4 d8 c4- | c4 B4 (G4 A4- | %14
w: ||||||Das|Blut Je- su|Chri- sti,|des Soh\-|* nes Got\- *|
 A4 G2 F2 E4 F4- | F4 E4) F4 z4 | c2 cc G2 G2 B4 F4 | z2 F2 A4 E4 z2 E2 | G4 D2 D2 F4 C2 c2 | %19
w: |* * tes,|ma- chet uns rein von al- len,|von al- len, von|al- len, von al- len, von|
 _e4 d4 G8 | ^F4 d2 dd A2 A2 c4 | G2 G2 B4 F2 F2 A4- | A2 E2 E4 D4 f2 ff | c2 c2 _e8 d4 | %24
w: al- len Sün-|den, ma- chet uns rein von al-|len, von al- len, von al\-|* len Sün- den, ma- chet uns|rein von al- len|
 c8 B4 z4 | z4 c4 d8 | c4 G4 B8 | A4 A8 G4- | G4 F4 E8 | D8 z2 A2 G4- | G4 F4 E8 | %31
w: Sün- den,|das Blut|Je- su Chri-|sti, des Soh\-|* nes Got-|tes, des Soh\-|* nes Got-|
 ^F4 d2 dd A2 A2 c4 | G2 G2 B4 F2 F2 A4 | E4 (F8 E4) | F4 z4 d2 dd B2 B2 | %35
w: tes, ma- chet uns rein von al-|len, von al- len, von al-|len Sün\- *|den, ma- chet uns rein von|
 _e4 c4[Q:1/4=178] c2[Q:1/4=177] c[Q:1/4=176]c[Q:1/4=174] A2[Q:1/4=172] A2 | %36
w: al- len, ma- chet uns rein von|
[Q:1/4=169] d4[Q:1/4=164] B4[Q:1/4=158] A8 |[Q:1/4=155] G16 |] %38
w: al- len Sün-|den.|
V:2
 z16 | d8 _e8 | d4 B4 c8 | d16 | z4 d8 c4- | c4 B8 (A4- | A2 G2 G8 ^F4) | G4 d2 dd A2 A2 c4 | %8
w: |Das Blut|Je- su Chri-|sti,|des Soh\-|* nes Got\-||tes, ma- chet uns rein von al-|
 G2 G2 B6 A2 (G4- | G4 ^F4) G8 | z16 | G8 B8 | A4 F4 G8 | A4 d8 c4- | c4 B4 G8- | G8 F8 | z16 | %17
w: len, von al- len Sün\-|* * den,||das Blut|Je- su Chri-|sti des Soh\-|* nes Got\-|* tes,||
 A16 | B8 A4 F4 | (G2 A2 B8 A2 G2) | A4 F8 E4- | E4 D8 (D4- | D4 ^C4) D8 | z4 c2 cc G2 G2 B3 c | %24
w: das|Blut Je- su|Chri\- * * * *|sti, des Soh\-|* nés Got\-|* * tes,|ma- chet uns rein von al- len|
 (A2 B4 A2) B4 B4 | c12 B4 | G4 (G8 ^F2 E2) | ^F8 z8 | z4 A4 G8- | G4 F4 (E4 D4 | ^C4 D8 C4) | %31
w: Sun\- * * den, das|Blut Je-|su Chri\- * *|sti,|des Soh\-|* nes Got\- *||
 D8 d2 dd A2 A2 | c4 G2 G2 B4 F2 F2 | A4 _A4 G8 | FCCC F2 F2 D4 G4 | G2 GG E2 E2 A4 F4- | %36
w: tes, ma- chet uns rein von|al- len, von al- len, von|al- len Sün-|den, ma- chet uns rein von al- len,|ma- chet uns rein von al- len|
 F4 (G8 ^F4) | G16 |] %38
w: * Sün\- *|den.|
V:3
 G,8 B,8 | G,4 ^F,4 (G,4 A,4) | B,4 G,4 F,4 _E,4 | (D,3 E,/^F,/ G,8 F,4) | %4
w: Das Blut|Je- su Chri\- *|~ti, des Soh- nes|Got\- * * * *|
 G,4 G,2 G,G, D,2 D,2 F,4 | C,2 C,2 _E,4 B,,2 B,,2 D,4 | B,,8 A,,8 | G,,8 D,2 D,D, A,,2 A,,2 | %8
w: tes, ma- chet uns rein von al-|len. von al- len,. von al-|len Sün-|den, ma- chet uns rein von|
 C,4 G,,2 G,2 B,6 C2 | A,8 G,8 | z16 | z16 | D,8 _E,8 | D,4 B,,4 C,8 | D,4 D,4 C,4 B,,4 | %15
w: al- len. von al- len|Sün- den,|||das Blut|Je- su Chri-|sti, des Soh- nes|
 C,8 F,,4 F,2 F,F, | C,2 C,2 _E,4 B,,4 z2 B,,2 | D,4 A,,4 z2 A,,2 C,4 | %18
w: Got- tes, ma- chet uns|rein von al- len, von|al- len, von al-|
 G,,2 G,,2 B,,4 F,,4 z2 F,2 | C,4 D,4 _E,8 | D,4 z4 D,2 D,D, A,,2 A,,2 | C,4 G,,2 G,,2 B,,4 ^F,,4 | %22
w: len, von al- len, von|al- len Sün-|den, ma- chet uns rein von|al- len. von al- len|
 A,,8 D,8 | z16 | z4 F,4 G,8 | F,8 D,8 | _E,8 D,8- | D,8 z8 | z16 | D,8 C,4 B,,4 | A,,16 | %31
w: Sün- den,||das Blut|Je- su|Chn- sti,|||des Soh- nes|Got-|
 D,4 G,4 F,8 | _E,8 D,8 | C,16 | z4 F,,2 F,,F,, B,,2 B,,2 G,,4 | C,4 C,2 C,C, A,,2 A,,2 D,2 D,2 | %36
w: tes, des Soh-|nes, Got-|tes,|ma- chet uns rein von al-|len, ma- chet uns rein von al- len|
 (B,,6 C,2 D,8) | G,,16 |] %38
w: Sün\- * *|den.|
V:4
 G,8 B,8 | G,4 ^F,4 G,4 A,4 | B,4 G,4 F,4 _E,4 | D,4 G,8 ^F,4 | G,4 G,2 G,G, D,2 D,2 F,4 | %5
w: |* 6 6 *|* * * 6|||
 C,2 C,2 _E,4 B,,2 B,,2 D,4 | x4- x4 x4- x4 | G,,8 D,2 D,D, A,,2 A,,2 | C,4 G,,2 G,2 B,4- B,2 C2 | %9
w: |7 7||* * * * 6 *|
 x4- x4 G,8- | G,4 A,4 B,4 G,4 | _E,4 C,4 G,8 | D,8 x4- x4 | D,4 B,,4 x4- x4 | x4- x4 C,4 B,,4 | %15
w: 7 *|6 * * *|6 * *|* 7|7 * 9|7 * *|
 x4- x4 F,,4 F,2 F,F, | C,2 C,2 _E,4 B,,6 B,,2 | D,4 A,,6 A,,2 C,4 | G,,2 G,,2 B,,4 F,,6 F,2 | %19
w: 4 * * * *||* * * 6||
 x2- x2 D,4 _E,8 | x4- x4 D,2 D,D, A,,2 A,,2 | C,4 G,,2 G,,2 B,,4 ^F,,4 | x4- x4 x4- x4 | %23
w: 5 6 *||* * * * 6|4 *|
 F,4 C,4 _E,4 B,,4 | x2- x4 x2 G,8 | F,8 x4- x4 | x4- x4 D,8- | D,4 D,4 x4- x4 | ^C,4 D,4 D,4 C,4 | %29
w: |3 *|* 7|6 4|* * 7|* * 4 *|
 x4- x4 C,4 B,,4 | x4- x4 x4 x4 | D,4 G,4 x4- x4 | x4- x4 x4- x4 | x4- x4 x4- x4 | %34
w: 4 6 6|3|* * 6|6 6|6 4|
 F,,4 F,,2 F,,F,, B,,2 B,,2 G,,4 | C,4 C,2 C,C, A,,2 A,,2 D,4 | B,,4- B,,2 C,2 x4- x4 | G,,16 |] %38
w: ||* 6 * 4||

